X:281
T:Valse du Cantal
A:Massif Central
O:France
M:3/4
L:1/4
Q:1/4=180
K:G
B|:BGB|d/2B/2GB|d/2B/2GB|d2d|dcB|
AA/2G/2 A/2B/2|AA/2G/2 A/2B/2|AA/2G/2B/2A/2|G2G|
|:A/2B/2cd|e2e|e/2f/2ga|e2e|e/2f/2ed|c>Bc|1dcB|A2A:|2dBA|G2B||
